icons/criminal-fill.svg

<svg xmlns="http://www.w3.org/2000/svg" width="24" height="24" fill="none"><g clip-path="url(#a)"><g><path fill="#121212" d="M12 2C13.7133 1.99993 15.3911 2.48892 16.8361 3.40949C18.2811 4.33006 19.4333 5.64397 20.1573 7.19681C20.8813 8.74964 21.1471 10.4769 20.9233 12.1755C20.6995 13.8742 19.9955 15.4737 18.894 16.786C20.149 17.616 20.927 18.676 20.995 19.835L21 20L12 22L3.00001 20L3.00501 19.835C3.07201 18.675 3.85101 17.615 5.10501 16.785C3.74251 15.1656 2.99685 13.1163 3.00001 11C3.00001 8.61305 3.94822 6.32387 5.63605 4.63604C7.32388 2.94821 9.61306 2 12 2ZM12 13C10.62 13 9.50001 13.672 9.50001 14.5C9.50001 15.328 10.62 16 12 16C13.38 16 14.5 15.328 14.5 14.5C14.5 13.672 13.38 13 12 13ZM9.00001 8C7.89501 8 7.00001 8.672 7.00001 9.5C7.00001 10.328 7.89501 11 9.00001 11C10.105 11 11 10.328 11 9.5C11 8.672 10.105 8 9.00001 8ZM15 8C13.895 8 13 8.672 13 9.5C13 10.328 13.895 11 15 11C16.105 11 17 10.328 17 9.5C17 8.672 16.105 8 15 8Z"/></g></g><defs><clipPath id="a"><rect width="24" height="24" fill="white"/></clipPath></defs></svg>

<svg width="24" height="24" fill="none" xmlns="http://www.w3.org/2000/svg"><g clip-path="url(#a)"><path d="M12 2a9 9 0 0 1 6.894 14.786c1.255.83 2.033 1.89 2.101 3.049L21 20l-9 2-9-2 .005-.165c.067-1.16.846-2.22 2.1-3.05A9 9 0 0 1 12 2Zm0 11c-1.38 0-2.5.672-2.5 1.5S10.62 16 12 16s2.5-.672 2.5-1.5S13.38 13 12 13ZM9 8c-1.105 0-2 .672-2 1.5S7.895 11 9 11s2-.672 2-1.5S10.105 8 9 8Zm6 0c-1.105 0-2 .672-2 1.5s.895 1.5 2 1.5 2-.672 2-1.5S16.105 8 15 8Z" /></g><defs><clipPath id="a"><path fill="#fff" d="M0 0h24v24H0z"/></clipPath></defs></svg>
